/* XPM */
static char *east_xpm[] = {
"64 64 2 1",
". c #B8860B",
"# c #7A5907",
"################################################################",
"#...............................#...............................",
"#...............................#...............................",
"#...............................#...............................",
"#...............................#...............................",
"#...............................#...............................",
"#...............................#...............................",
"#...............................#...............................",
"#...............................#...............................",
"#...............................#...............................",
"#...............................#...............................",
"#...............................#...............................",
"#...............................#...............................",
"#...............................#...............................",
"#...............................#...............................",
"#...............................#...............................",
"################################################################",
"........................#...............................#.......",
"........................#...............................#.......",
"........................#...............................#.......",
"........................#...............................#.......",
"........................#...............................#.......",
"........................#...............................#.......",
"........................#...............................#.......",
"........................#...............................#.......",
"........................#...............................#.......",
"........................#...............................#.......",
"........................#...............................#.......",
"........................#...............................#.......",
"........................#...............................#.......",
"........................#...............................#.......",
"........................#...............................#.......",
"################################################################",
"#...............................#...............................",
"#...............................#...............................",
"#...............................#...............................",
"#...............................#...............................",
"#...............................#...............................",
"#...............................#...............................",
"#...............................#...............................",
"#...............................#...............................",
"#...............................#...............................",
"#...............................#...............................",
"#...............................#...............................",
"#...............................#...............................",
"#...............................#...............................",
"#...............................#...............................",
"#...............................#...............................",
"################################################################",
"........................#...............................#.......",
"........................#...............................#.......",
"........................#...............................#.......",
"........................#...............................#.......",
"........................#...............................#.......",
"........................#...............................#.......",
"........................#...............................#.......",
"........................#...............................#.......",
"........................#...............................#.......",
"........................#...............................#.......",
"........................#...............................#.......",
"........................#...............................#.......",
"........................#...............................#.......",
"........................#...............................#.......",
"........................#...............................#......."
};
