/* XPM */
static char *north_xpm[] = {
"64 64 2 1",
". c #8B4513",
"# c #5C2E0D",
"################################################################",
"#...............................#...............................",
"#...............................#...............................",
"#...............................#...............................",
"#...............................#...............................",
"#...............................#...............................",
"#...............................#...............................",
"#...............................#...............................",
"#...............................#...............................",
"#...............................#...............................",
"#...............................#...............................",
"#...............................#...............................",
"#...............................#...............................",
"#...............................#...............................",
"#...............................#...............................",
"#...............................#...............................",
"################################################################",
"........................#...............................#.......",
"........................#...............................#.......",
"........................#...............................#.......",
"........................#...............................#.......",
"........................#...............................#.......",
"........................#...............................#.......",
"........................#...............................#.......",
"........................#...............................#.......",
"........................#...............................#.......",
"........................#...............................#.......",
"........................#...............................#.......",
"........................#...............................#.......",
"........................#...............................#.......",
"........................#...............................#.......",
"........................#...............................#.......",
"################################################################",
"#...............................#...............................",
"#...............................#...............................",
"#...............................#...............................",
"#...............................#...............................",
"#...............................#...............................",
"#...............................#...............................",
"#...............................#...............................",
"#...............................#...............................",
"#...............................#...............................",
"#...............................#...............................",
"#...............................#...............................",
"#...............................#...............................",
"#...............................#...............................",
"#...............................#...............................",
"#...............................#...............................",
"################################################################",
"........................#...............................#.......",
"........................#...............................#.......",
"........................#...............................#.......",
"........................#...............................#.......",
"........................#...............................#.......",
"........................#...............................#.......",
"........................#...............................#.......",
"........................#...............................#.......",
"........................#...............................#.......",
"........................#...............................#.......",
"........................#...............................#.......",
"........................#...............................#.......",
"........................#...............................#.......",
"........................#...............................#.......",
"........................#...............................#......."
};
