/* XPM */
static char *south_xpm[] = {
"64 64 2 1",
". c #708090",
"# c #475560",
"################################################################",
"#...............................#...............................",
"#...............................#...............................",
"#...............................#...............................",
"#...............................#...............................",
"#...............................#...............................",
"#...............................#...............................",
"#...............................#...............................",
"#...............................#...............................",
"#...............................#...............................",
"#...............................#...............................",
"#...............................#...............................",
"#...............................#...............................",
"#...............................#...............................",
"#...............................#...............................",
"#...............................#...............................",
"################################################################",
"........................#...............................#.......",
"........................#...............................#.......",
"........................#...............................#.......",
"........................#...............................#.......",
"........................#...............................#.......",
"........................#...............................#.......",
"........................#...............................#.......",
"........................#...............................#.......",
"........................#...............................#.......",
"........................#...............................#.......",
"........................#...............................#.......",
"........................#...............................#.......",
"........................#...............................#.......",
"........................#...............................#.......",
"........................#...............................#.......",
"################################################################",
"#...............................#...............................",
"#...............................#...............................",
"#...............................#...............................",
"#...............................#...............................",
"#...............................#...............................",
"#...............................#...............................",
"#...............................#...............................",
"#...............................#...............................",
"#...............................#...............................",
"#...............................#...............................",
"#...............................#...............................",
"#...............................#...............................",
"#...............................#...............................",
"#...............................#...............................",
"#...............................#...............................",
"################################################################",
"........................#...............................#.......",
"........................#...............................#.......",
"........................#...............................#.......",
"........................#...............................#.......",
"........................#...............................#.......",
"........................#...............................#.......",
"........................#...............................#.......",
"........................#...............................#.......",
"........................#...............................#.......",
"........................#...............................#.......",
"........................#...............................#.......",
"........................#...............................#.......",
"........................#...............................#.......",
"........................#...............................#.......",
"........................#...............................#......."
};
