/* XPM */
static char *west_xpm[] = {
"64 64 2 1",
". c #2E8B57",
"# c #1D5C39",
"################################################################",
"#...............................#...............................",
"#...............................#...............................",
"#...............................#...............................",
"#...............................#...............................",
"#...............................#...............................",
"#...............................#...............................",
"#...............................#...............................",
"#...............................#...............................",
"#...............................#...............................",
"#...............................#...............................",
"#...............................#...............................",
"#...............................#...............................",
"#...............................#...............................",
"#...............................#...............................",
"#...............................#...............................",
"################################################################",
"........................#...............................#.......",
"........................#...............................#.......",
"........................#...............................#.......",
"........................#...............................#.......",
"........................#...............................#.......",
"........................#...............................#.......",
"........................#...............................#.......",
"........................#...............................#.......",
"........................#...............................#.......",
"........................#...............................#.......",
"........................#...............................#.......",
"........................#...............................#.......",
"........................#...............................#.......",
"........................#...............................#.......",
"........................#...............................#.......",
"################################################################",
"#...............................#...............................",
"#...............................#...............................",
"#...............................#...............................",
"#...............................#...............................",
"#...............................#...............................",
"#...............................#...............................",
"#...............................#...............................",
"#...............................#...............................",
"#...............................#...............................",
"#...............................#...............................",
"#...............................#...............................",
"#...............................#...............................",
"#...............................#...............................",
"#...............................#...............................",
"#...............................#...............................",
"################################################################",
"........................#...............................#.......",
"........................#...............................#.......",
"........................#...............................#.......",
"........................#...............................#.......",
"........................#...............................#.......",
"........................#...............................#.......",
"........................#...............................#.......",
"........................#...............................#.......",
"........................#...............................#.......",
"........................#...............................#.......",
"........................#...............................#.......",
"........................#...............................#.......",
"........................#...............................#.......",
"........................#...............................#.......",
"........................#...............................#......."
};
